X:259
T: Es ist ein Schnee gefallen (3-61), S. 175
N: P1034
O: Lothringen
S: PINCK, Louis: Verklingende Weisen, Bd3, Metz 1933]
R: Treueversprechen]
M: 4/4
L: 1/8
K: G
D2 | G2F2G2BA | G2F2G2
d2 | eed2c2BG | A4z2
G2 | A2d2dcBA | B2A2G2
G2 | A2d2dcBA | GFE2D2
D2 | G2G2ABAF | G4z2

